X:5936
T:Gan Ainm
R:reel
S:
H:
N:
D:?
Z:Adrian Scahill
M:4/4
L:1/8
K:G
GB (3BBB dBB2|GABG ABGE|DEGA B3d|eaaf gedB|\
GB (3BBB dBB2|GABG ABGE|DEGB dgfg|ecAF G4:||\
g3g gfed|Bdd2 Bdef|g2af gfed|eaag a3f|\
g3a gfed|BddB d2gd|c3B cBAB|cAFA G4:||


